X:1
T:Woodbrook, 11.11.11.11
T:Woodbrook, 11.11.11.11
T:John Adcock (1838-1919)
T:Public Domain Courtesy of the Cyber Hymnal™
C:John Adcock (1838-1919)
Z:Public Domain
Z:Courtesy of the Cyber Hymnal™
%%score ( 1 2 ) ( 3 4 )
L:1/8
Q:1/4=110
M:4/4
K:E
V:1 treble 
V:2 treble 
V:3 bass 
V:4 bass 
V:1
 [EG]2 [EG]2 [EB]2 E2 | [DF]4 E4 | [Ec]2 [Ec]2 [Ee]2 [Ec]2 | [EB]8 | [EA]2 [Ec]2 [FB]2 [FA]2 | %5
 [EG]2 [EB]2 [EA]2 [EG]2 | [EF]4 [EF]4 | [DF]8 | [EG]2 [EG]2 [DB]2 E2 | F4 E4 | %10
 [Ec]2 [Ec]2 [Ee]2 [Fc]2 | [GB]8 | [EA]2 [Ec]2 [FB]2 [FA]2 | [EG]2 [EB]2 [EA]2 [EG]2 | %14
 [EF]4 [DF]4 | E8 |] x8 |] %17
V:2
 x6 E2 | x4 E4 | x8 | x8 | x8 | x8 | x8 | x8 | x6 E2 | (E2 D2) E4 | x8 | x8 | x8 | x8 | x8 | E8 |] %16
 x8 |] %17
V:3
 [E,B,]2 [E,B,]2 [G,,B,]2 [C,G,]2 | [B,,A,]4 [E,G,]4 | A,2 A,2 [A,C]2 [A,,A,]2 | [E,G,]8 | %4
 [C,A,]2 [C,E,]2 [D,B,]2 [D,B,]2 | [E,B,]2 [G,,B,]2 [A,,C]2 x2 | [B,,B,]2 x6 | [C,^A,]4 [F,,A,]4 | %8
 [B,,B,]8 | [E,B,]2 [E,B,]2 [G,,B,]2 [C,G,]2 | [B,,A,]4 [E,G,]4 | A,2 A,2 [A,C]2 [A,D]2 | [E,E]8 | %13
 [C,A,]2 [C,E,]2 [D,B,]2 [D,B,]2 | [E,B,]2 [G,,B,]2 [A,,C]2 [E,B,]2 | [B,,B,]4 [B,,A,]4 |] %16
 [E,G,]8 |] %17
V:4
 x8 | x8 | A,2 A,2 x4 | x8 | x8 | x8 | x8 | x8 | x8 | x8 | x8 | A,2 A,2 x4 | x8 | x8 | x8 | x8 |] %16
 x8 |] %17

